X:111
T:Ur Hornpipe,The,aka. HA.110
M:C
L:1/8
%Q:1/2=96
C:Untitled in MS
S:Henry Atkinson's original MS,Hartburn,N'umberland,1694.
O:England
A:Hartburn,Northumberland
N:Is this the earliest true hornpipe? Hence my name for it.CGP
H:1/8
Z:vmp.Chris Partington.Jan.2004
K:A
AB |\
c2(ba) e2A2 | cdef ecAc | defe dcBA | G2B4 cd |
ecde fdef | geac dfed | cABG AceB | c2A4 :|
|: fg |\
abae cAec | dfBA GBeB | cAec afbf | g2e4fg |
aecf ecAc | dBFB GEFG | ABcd edeB | c2A4 :|
